images/sprite/facebook.svg

<svg   viewBox="0 0 31 31" fill="none" xmlns="http://www.w3.org/2000/svg">
<path d="M23.125 3.35596C24.3646 3.35596 25.4245 3.79606 26.3047 4.67627C27.1849 5.55648 27.625 6.61637 27.625 7.85596V22.856C27.625 24.0955 27.1849 25.1554 26.3047 26.0356C25.4245 26.9159 24.3646 27.356 23.125 27.356H20.1875V18.0591H23.2969L23.7656 14.4341H20.1875V12.1216C20.1875 11.5382 20.3099 11.1007 20.5547 10.8091C20.7995 10.5174 21.276 10.3716 21.9844 10.3716L23.8906 10.356V7.12158C23.2344 7.02783 22.3073 6.98096 21.1094 6.98096C19.6927 6.98096 18.5599 7.39762 17.7109 8.23096C16.862 9.06429 16.4375 10.2414 16.4375 11.7622V14.4341H13.3125V18.0591H16.4375V27.356H8.125C6.88542 27.356 5.82552 26.9159 4.94531 26.0356C4.0651 25.1554 3.625 24.0955 3.625 22.856V7.85596C3.625 6.61637 4.0651 5.55648 4.94531 4.67627C5.82552 3.79606 6.88542 3.35596 8.125 3.35596H23.125Z" fill="white"/>
</svg>

<svg viewBox="0 0 31 31" fill="none" xmlns="http://www.w3.org/2000/svg"><path d="M23.125 3.356c1.24 0 2.3.44 3.18 1.32.88.88 1.32 1.94 1.32 3.18v15c0 1.24-.44 2.3-1.32 3.18-.88.88-1.94 1.32-3.18 1.32h-2.938v-9.297h3.11l.469-3.625h-3.578v-2.312c0-.584.122-1.021.367-1.313.244-.292.721-.437 1.43-.437l1.906-.016V7.122c-.657-.094-1.584-.141-2.782-.141-1.416 0-2.55.417-3.398 1.25-.849.833-1.273 2.01-1.273 3.531v2.672h-3.125v3.625h3.124v9.297H8.126c-1.24 0-2.3-.44-3.18-1.32-.88-.88-1.32-1.94-1.32-3.18v-15c0-1.24.44-2.3 1.32-3.18.88-.88 1.94-1.32 3.18-1.32h15z" fill="#fff"/></svg>
